X:1
T:Farewell (Naylor), 66.84
T:Farewell (Naylor), 66.84
T:John Naylor, 1873
T:Public Domain Courtesy of the Cyber Hymnal™
C:John Naylor, 1873
Z:Public Domain
Z:Courtesy of the Cyber Hymnal™
%%score ( 1 2 ) ( 3 4 )
L:1/8
Q:1/4=107
M:4/4
K:Eb
V:1 treble 
V:2 treble 
V:3 bass 
V:4 bass 
V:1
 E2 | [EF]2 [EA]2 [EG]2 [Ec]2 | [DB]4 E2 [B,F]2 | [EG]2 [EB]2 [EA]2 [EG]2 | F6 [CF]2 | %5
 [DG]2 [D=B]2 [Gc]2 [Fd]2 | e2 z [Cc]2 [CE]2 x | ([B,E]2 A2 G2) [DF]2 | E6 |] %9
V:2
 E2 | x8 | x4 E2 x2 | x8 | (E2 D4) x2 | x8 | E3 G2 D x2 | x2 E4 x2 | E6 |] %9
V:3
 [E,G,]2 | [E,A,]2 [E,C]2 [E,B,]2 [A,,A,]2 | [B,,A,]4 [C,G,]2 [E,B,]2 | %3
 [E,B,]2 [G,,_D]2 [A,,C]2 [E,B,]2 | [B,,B,]6 [A,C]2 | [G,=B,]2 [F,G,]2 [E,=A,]2 [D,B,]2 | %6
 [C,C]2 [B,,E,]2 [A,,E,]2 [=A,,F,]2 | (G,2 C2 B,2) [B,,A,]2 | [E,G,]6 |] %9
V:4
 x2 | x8 | x8 | x8 | x8 | x8 | x8 | B,,6 x2 | x6 |] %9

